epam-assets/icon-sources/18/link-horizontal.svg

<svg width="18" height="18" viewBox="0 0 18 18" fill="none" xmlns="http://www.w3.org/2000/svg">
<g id="18/link-horizontal">
<path id="icon" d="M8.25 12.75H5.25C4.2125 12.75 3.32825 12.3842 2.59725 11.6528C1.86575 10.9217 1.5 10.0375 1.5 9C1.5 7.9625 1.86575 7.078 2.59725 6.3465C3.32825 5.6155 4.2125 5.25 5.25 5.25H8.25V6.75H5.25C4.625 6.75 4.09375 6.96875 3.65625 7.40625C3.21875 7.84375 3 8.375 3 9C3 9.625 3.21875 10.1562 3.65625 10.5938C4.09375 11.0312 4.625 11.25 5.25 11.25H8.25V12.75ZM6 9.75V8.25H12V9.75H6ZM9.75 12.75V11.25H12.75C13.375 11.25 13.9062 11.0312 14.3438 10.5938C14.7812 10.1562 15 9.625 15 9C15 8.375 14.7812 7.84375 14.3438 7.40625C13.9062 6.96875 13.375 6.75 12.75 6.75H9.75V5.25H12.75C13.7875 5.25 14.672 5.6155 15.4035 6.3465C16.1345 7.078 16.5 7.9625 16.5 9C16.5 10.0375 16.1345 10.9217 15.4035 11.6528C14.672 12.3842 13.7875 12.75 12.75 12.75H9.75Z" fill="#6C6F80"/>
</g>
</svg>

<svg xmlns="http://www.w3.org/2000/svg" width="18" height="18" fill="none" viewBox="0 0 18 18">
  <path fill="#6C6F80" d="M8.25 12.75h-3a3.613 3.613 0 0 1-2.653-1.097A3.613 3.613 0 0 1 1.5 9a3.62 3.62 0 0 1 1.097-2.654A3.618 3.618 0 0 1 5.25 5.25h3v1.5h-3a2.17 2.17 0 0 0-1.594.656A2.17 2.17 0 0 0 3 9c0 .625.219 1.156.656 1.594a2.17 2.17 0 0 0 1.594.656h3v1.5ZM6 9.75v-1.5h6v1.5H6Zm3.75 3v-1.5h3a2.17 2.17 0 0 0 1.594-.656A2.17 2.17 0 0 0 15 9a2.17 2.17 0 0 0-.656-1.594 2.17 2.17 0 0 0-1.594-.656h-3v-1.5h3c1.037 0 1.922.365 2.653 1.096A3.616 3.616 0 0 1 16.5 9a3.615 3.615 0 0 1-1.097 2.653 3.615 3.615 0 0 1-2.653 1.097h-3Z"/>
</svg>
